src/actions/24/audio-volume-muted.svg

<svg xmlns="http://www.w3.org/2000/svg" viewBox="0 0 24 24">
  <defs id="defs3051">
    <style type="text/css" id="current-color-scheme">
      .ColorScheme-Text {
        color:#2e3440;
      }
      .ColorScheme-NegativeText {
        color:#bf616a;
      }
      </style>
  </defs>
  <path 
     style="fill:currentColor;fill-opacity:1;stroke:none" 
     d="M 11.988281 4 L 7 8.9902344 L 7 9 L 7 10 L 7 14 L 7 15 L 7 15.009766 L 11.988281 20 L 13 20 L 13 19.597656 L 13 4.4023438 L 13 4 L 11.988281 4 z M 4 9 L 4 10 L 4 14 L 4 15 L 6 15 L 6 14 L 6 10 L 6 9 L 4 9 z "
     class="ColorScheme-Text"/>
  <path
     style="fill:currentColor;fill-opacity:1;stroke:none" 
     d="M 14 11 L 14 13 L 20 13 L 20 11 L 14 11 z "
     class="ColorScheme-NegativeText"
     />
</svg>

<svg viewBox="0 0 24 24" xmlns="http://www.w3.org/2000/svg">
 <defs>
  <style type="text/css">.ColorScheme-Text {
        color:#2e3440;
      }
      .ColorScheme-NegativeText {
        color:#bf616a;
      }</style>
 </defs>
 <path class="ColorScheme-Text" d="m11.988 4-4.9883 4.9902v0.0097656 1 4 1 0.009766l4.9883 4.9902h1.0117v-0.40234-15.195-0.40234h-1.0117zm-7.9883 5v1 4 1h2v-1-4-1h-2z" fill="currentColor"/>
 <path class="ColorScheme-NegativeText" d="m14 11v2h6v-2h-6z" fill="currentColor"/>
</svg>
